src/assets/svg/assembler.svg

<svg width="20" height="22" viewBox="0 0 20 22" fill="none" xmlns="http://www.w3.org/2000/svg">
    <path
        d="M11.666 0.428672L18.416 4.40867C18.4827 4.44867 18.5427 4.49301 18.596 4.54167L18.605 4.54967L18.711 4.62467C19.086 4.90562 19.3952 5.26504 19.617 5.67784C19.8388 6.09064 19.9678 6.54687 19.995 7.01467L20 7.21767V14.5017C20 15.6767 19.357 16.7577 18.377 17.2947L11.573 21.5967C10.593 22.1347 9.407 22.1347 8.373 21.5647L1.678 17.3277C1.171 17.0499 0.747845 16.6411 0.45269 16.1441C0.157536 15.647 0.00120109 15.0798 1.01976e-06 14.5017V7.21667C-0.000455392 6.64399 0.152302 6.08162 0.442431 5.58787C0.732561 5.09412 1.1495 4.68698 1.65 4.40867L8.425 0.413672C8.92196 0.141039 9.48012 -0.000635245 10.0469 0.00198893C10.6138 0.0046131 11.1706 0.151449 11.665 0.428672M11.025 5.77167C10.7212 5.59688 10.3773 5.50373 10.0268 5.50127C9.67636 5.49882 9.33121 5.58715 9.025 5.75767L6.002 7.56167C5.69632 7.7365 5.44251 7.98932 5.26647 8.2943C5.09044 8.59929 4.99848 8.94553 5 9.29767V12.5757C4.99983 12.9328 5.09526 13.2834 5.27639 13.5911C5.45751 13.8989 5.71773 14.1525 6.03 14.3257L8.976 16.2157C9.633 16.5827 10.366 16.5827 10.97 16.2487L14.024 14.2937C14.606 13.9717 15 13.3017 15 12.5747V9.29767L14.995 9.13367C14.9741 8.86492 14.8991 8.60317 14.7746 8.36413C14.65 8.12509 14.4783 7.91371 14.27 7.74267L14.178 7.67267L14.122 7.62567C14.0913 7.60251 14.0592 7.58114 14.026 7.56167L11.025 5.77167Z"
        fill="#9883FF" />
</svg>

<svg width="20" height="22" fill="none" xmlns="http://www.w3.org/2000/svg"><path d="m11.666.429 6.75 3.98c.067.04.127.084.18.133l.009.008.106.075a3.22 3.22 0 0 1 1.284 2.39l.005.203v7.284c0 1.175-.643 2.256-1.623 2.793l-6.804 4.302c-.98.538-2.166.538-3.2-.032l-6.695-4.237A3.23 3.23 0 0 1 0 14.502V7.217a3.21 3.21 0 0 1 1.65-2.808L8.425.414a3.34 3.34 0 0 1 3.24.015m-.64 5.343a2.03 2.03 0 0 0-2-.014L6.002 7.562A1.99 1.99 0 0 0 5 9.298v3.278a2 2 0 0 0 1.03 1.75l2.946 1.89c.657.367 1.39.367 1.994.033l3.054-1.955c.582-.322.976-.992.976-1.72V9.299l-.005-.164a2.002 2.002 0 0 0-.725-1.391l-.092-.07-.056-.047a.996.996 0 0 0-.096-.064l-3.001-1.79z" fill="#9883FF"/></svg>
